app/style/icons/accountsHeader.svg

<svg viewBox="0 0 30.171 30.171" xmlns="http://www.w3.org/2000/svg"><path d="m0 0h30.171v30.171h-30.171z" fill="none"/><path d="m26.676 67.86h23.467a1.676 1.676 0 0 1 1.676 1.676v17.72a1.676 1.676 0 0 1 -1.676 1.676h-23.467a1.676 1.676 0 0 1 -1.676-1.676v-17.72a1.676 1.676 0 0 1 1.676-1.676z" fill="#3d5873" transform="translate(-23.324 -63.31)"/><path d="m26.605 96.43h23.61a1.605 1.605 0 0 1 1.605 1.605v15.947a1.605 1.605 0 0 1 -1.605 1.605h-23.61a1.605 1.605 0 0 1 -1.605-1.605v-15.948a1.6 1.6 0 0 1 1.605-1.604z" fill="#c2c9d0" transform="translate(-23.324 -89.964)"/><g fill="#3d5873"><path d="m139.29 210.72v5.747h1.916v-5.747z" transform="translate(-129.951 -196.592)"/><path d="m55.486 189.8v-5.747h3.832v-1.913h-5.748v9.578h5.747v-1.918z" transform="translate(-49.978 -169.928)"/><path d="m13.17 16.037h1.916v1.916h-1.916z"/><path d="m17.002 16.037h1.916v1.916h-1.916z"/><path d="m20.833 16.037h1.916v1.916h-1.916z"/><path d="m24.664 16.037h1.916v1.916h-1.916z"/></g></svg>

<svg xmlns="http://www.w3.org/2000/svg" viewBox="0 0 30.171 30.171"><defs><style>.a{fill:none;}.b{fill:#3d5873;}.c{fill:#c2c9d0;}</style></defs><g transform="translate(-359.816 -45.829)"><g transform="translate(359.816 45.829)"><rect class="a" width="30.171" height="30.171"/><g transform="translate(1.676 4.55)"><path class="b" d="M26.676,67.86H50.143a1.676,1.676,0,0,1,1.676,1.676v17.72a1.676,1.676,0,0,1-1.676,1.676H26.676A1.676,1.676,0,0,1,25,87.256V69.536A1.676,1.676,0,0,1,26.676,67.86Z" transform="translate(-25 -67.86)"/><path class="c" d="M26.605,96.43H50.215a1.605,1.605,0,0,1,1.605,1.605v15.947a1.605,1.605,0,0,1-1.605,1.605H26.605A1.605,1.605,0,0,1,25,113.982V98.034A1.6,1.6,0,0,1,26.605,96.43Z" transform="translate(-25 -94.514)"/><g transform="translate(1.916 7.662)"><path class="b" d="M139.29,210.72v5.747h1.916V210.72Z" transform="translate(-133.543 -208.804)"/><path class="b" d="M55.486,189.8v-5.747h3.832V182.14H53.57v9.578h5.747V189.8H55.486Z" transform="translate(-53.57 -182.14)"/><rect class="b" width="1.916" height="1.916" transform="translate(9.578 3.825)"/><rect class="b" width="1.916" height="1.916" transform="translate(13.41 3.825)"/><rect class="b" width="1.916" height="1.916" transform="translate(17.241 3.825)"/><rect class="b" width="1.916" height="1.916" transform="translate(21.072 3.825)"/></g></g></g></g></svg>
